X:1
T:Lasso ch'io pur piango
T:Girolamo Scotto
T:Source : Madrigali a tre voci---Venetia---G.Scotto---1541. Editor : André Vierendeels (05/08/16).
T:Notes : Original clefs : C2, C4, F4 Editorial accidentals above the staff Original note values have been halved Square brackets indicate ligatures "Tertii toni"
T:Lasso ch'io pur piango
T:©
T:©
T:©
T:©
T:©
T:©
T:©
T:©
C:Girolamo Scotto
Z:©
%%score [ 1 2 3 ]
L:1/8
Q:1/4=100
M:2/2
K:C
V:1 treble nm="Alto" snm="A"
V:2 treble-8 nm="Tenor" snm="T"
V:3 bass nm="Bass" snm="B"
V:1
 E8 | D4 F4- | F2 E2 E3 F | G2 D2 E3 D | EF G4 FE | F3 E/D/ C4 | z2 G2 E2 G2- | G2 D2 F4 | E4 D4 | %9
w: Las-|so ch'io|_ pur pian- *|go, ch'io pur _|_ _ _ _ _|pian- * * go,|las- so ch'io|_ pur pian-|go et|
 E3 D E2 F2- | FE E4 D2 | EFGE FG A2- |"^#" A2 G2 A2 E2 | E2 E2 G2 G2 | C2 F2 D2 E2- | EF G4 F2 | %16
w: non _ _ mi|_ _ gio- va'il|pian- * * * * * *|* * to: Et|vo chia- man- do,|e'in- dar- no'e'in- dar-|* * no'i so-|
 E2 E4 DC | B,2 C2 A,4 | z2 C2 C2 C2 | A,3 B, C2 G,2- | G,2 D2 B,2 C2- | C2 B,2 D2 E2- | %22
w: spir muo- * *|* * vo,|et cer- c'ogn-|ho- * * ra,|_ et per cer-|* car non tro-|
 EDEF G2 A2- | AG G4 F2 | G2 D2 D2 D2 | G2 A3 GFE | F2 D2 E2 C2 | B,2 C2 G,2 G2- | GFED E2 F2- | %29
w: ||vo, l'al- ma, bel-|la, gen- * * *|til, ch'io a- mo|tan- * * *||
 FE E4 D2 | E2 A4 G2 | A2 F4 E2 | F4 E4- | E8 || z8 | z8 | z8 | z8 | z4 E4- | E4 D4 | F4 C3 D | %41
w: |to, ch'io a-|mo tan- *|* to.|_|||||Et|_ co-|si sem- *|
 EF G3 FED | E2 D2 A2 G2- | G2 F2 E4 | z2 A2 A2 A2 | E2 E2 F4 | D2 ^F2 G4 | A4 D2 F2 | %48
w: |* pre vi- *|* * vo,|se non quan-|to Tra- pas-|so'in son- *|* no, se|
 F2 F2 E2 D2 | A2 G2 A2 F2 | E2 A3 G/F/ G2 | A2 E2 E2 E2 | G2 F3 E E2- | E2 D2 E3 D | C2 F2 EDCB, | %55
w: non quan- to Tra-|pas- so'in son- *||no: Et que- sto'un|do- lor _ muo-||vo, co- tal _ _ _|
 C2 A,4 D2- | DC C4 B,2 | C4 z2 A,2 | A,2 A,2 C4- | C2 B,2 A,B,CD | E2 D2 G3 F | ED C2 F2 E2- | %62
w: _ mi- re-|* c'a- mo- *|re, ch'à|lu- i par|_ non pro- * * *|* vo, poi ch'io|fu- * i ci- gno,|
 E2 E2 D2 E2 | F2 E3 DCB, | A,2 D4 C2 | D2 F2 E4 | z2 E2 E2 D2 | E2 G3 F F2- | FE E4 D2 | %69
w: _ poi ch'io fu-|i ci- * * *||* * gno,|che mie pe-|ne can- * *||
 E2 F2 E4 | z2 E2 E2 D2 | E2 G3 F F2- | FE E4 D2 | E3 D EF G2 | C4 z2 E2- | E2 F4 E2 | F4 E4- | %77
w: * * to,|[che mie pe-|ne can- * *|||to,] pe-|* * ne|can- to.|
 E8 |] %78
w: _|
V:2
 z8 | z8 | A8 | G4 c4- | c2 B2 B3 c | d2 A3 GAB | cd e2 c2 B2- | BABc d2 A2- | AB c3 B/A/ B2 | %9
w: ||Las-|so ch'io|_ pur pian- *|||||
 c3 B A4- | A2 G2 A4 | B3 c d2 c2 | B4 A2 c2 | c2 c2 B2 B2 | A4 B2 c2 | c2 c2 B2 A2- | %16
w: * * go,|_ et non|mi _ gio- va'il|pian- to: Et|vo chia- man- do|e'in- dar- no'e'in-|dar- no'i so- spir|
 A2 G2 A2 E2- | EF G4 F2 | G4 A2 E2 | F2 F2 E4 | E2 D2 G2 F2 | E2 G2 G2 G2 | c6 BA | B2 c2 A4 | %24
w: _ muo- * *||vo, i so-|spir muo- vo,|et cer- c'ogn- ho-|ra, et per cer-|car _ _|_ non tro-|
 G2 B2 B2 B2 | c2 c2 A4- | A2 B2 c2 A2 | G2 E2 E2 E2 | G3 A/B/ c2 A2- | A2 G2 A4 | B2 c2 B4 | A8 | %32
w: vo, l'al- ma, bel-|la, gen- til,|_ _ _ _|* ch'io a- mo|tan- * * * *||||
 A8- | A8 || z8 | z8 | B8 | A4 c4 | B2 B2 c3 B | A2 GA BABc | d2 A2 A2 A2 | c2 B2 c2 G2- | %42
w: to.|_|||Et|co- si|sem- pre vi- *||vo, et sem- pre|vi- * * *|
 GABc d2 e2- | ed d4 c2 | d2 d3 c c2- | cBAG F2 B2- | BA A2 G2 c2- | c2 BA B2 d2 | d2 d2 B2 B2 | %49
w: ||vo, sem- pre vi-|||* * * vo, se|non quan- to Tra-|
 c2 c2 A2 d2- | d2 c2 d4 | e2 c2 c2 c2 | B2 A3 B c2- | c2 BA c2 B2- | BA A4 G2 | A2 F2 F2 D2 | %56
w: pas- so'in son _|_ _ _|no: Et que- sto'un|do- lor _ _|_ _ _ _ muo-||vo, co- tal mi-|
 E2 A2 G3 F | E2 F2 D2 F2- | F2 E4 A2- | A2 G2 F2 EF | GA B4 c2 | G2 A3 B c2 | A2 G4 E2 | A6 G2 | %64
w: re- ca ch'à lu-|i par non pro-||* * vo, poi _|_ _ _ ch'io|fu- i _ ci-|* gno, poi|ch'io fui|
 F4 E4 | z2 A2 A2 A2 | E2 E2 G4 | G2 E2 A2 A2 | G2 A2 F4 | E2 A2 A2 A2 | E2 E2 G4 | G2 E2 A2 A2 | %72
w: ci- gno,|che mie pe-|ne can- to,|che mie pe- ne|can- * *|to, che mie pe-|ne can- to,|che mie pe- ne|
 G2 A2 F4 | E2 c4 B2- | BA A4 G2 | A8 | A8- | A8 |] %78
w: can- * *|to, pe- ne|_ _ can- *||to.|_|
V:3
 z8 | z8 | z8 | z8 | E,8 | D,4 F,4- | F,2 E,2 E,3 F, | G,4 D,4 | C,2 C,2 G,4 | C,2 A,,4 D,2- | %10
w: ||||Las-|so ch'io|_ pur pian- *||go, et non|mi gio- va'il|
 D,2 E,2 F,4 | E,4 D,2 A,,2 | E,4 A,,2 A,2 | A,2 A,2 E,2 E,2 | F,4 G,2 C,2 | C,2 C,2 D,4 | %16
w: _ pian- *||* to: Et|vo chia- man- do|e'in- dar- no'i-|so- spir muo-|
 E,4 A,,4 | z2 C,2 D,2 D,2 | E,4 F,2 C,2 |"^#" D,4 A,,2 C,2 | C,2 B,,2 E,2 A,,B,, | %21
w: * vo,|et cer- c'ogn-|ho- ra, gn-|ho- ra, et|per cer- car non _|
 C,D, E,2 B,,2 C,2 | A,,B,,C,D, E,2 F,2 | E,2 C,2 D,4 | z2 G,2 G,2 G,2 | E,2 F,2 F,2 D,2 | %26
w: _ _ tro- * vo|non _ _ _ _ tro-|* * vo,|l'al- ma, bel-|la, gen- til, l'al-|
 D,2 D,2 A,,2 A,,2 | E,2 C,2 C,2 C,2 | E,4 C,2 D,2 | E,2 E,2 F,4 | E,2 A,,2 E,4 | A,,2 D,4 C,2 | %32
w: ma, bel- la gen-|til, ch'io a- mo|tan- to, ch'io|a- mo tan-|to, ch'io a-|mo tan- *|
 D,4 A,,4- | A,,8 || E,8 | D,4 F,4 | E,3 F, G,2 E,2 | F,2 D,2 C,D,E,F, | G,F,E,D, C,B,, A,,2- | %39
w: * to.|_|Et|co- si|sem- * * pre|vi- vo, et _ _ _|sem- * * * pre _ vi|
 A,,2 E,2 G,2 G,2 | D,3 E, F,4 | E,3 D, C,4 | C,2 G,2 F,2 E,2 | G,2 D,2 A,4 | D,3 E, F,4 | %45
w: _ vo, et sem-|pre _ _|vi _ _|vo, et co- si|sem- pre vi-||
 C,4 z2 D,2 | D,2 D,2 E,2 E,2 | F,4 G,2 D,2 | D,2 D,2 E,2 G,2 | F,2 E,2 F,2 D,2 | A,4 B,4 | %51
w: vo, se|non quan- to Tra-|pas- so, se|non quan- to Tra-|pas- so'in son- *||
 A,2 z A, A,2 A,2 | E,2 F,2 C,4 | F,2 F,2 E,2 E,2 | F,2 D,2 E,4 | A,,2 D,2 D,2 B,,2 | %56
w: no: Et que- sto'un|do- lor muo-|vo, et que- sto'un|do- lor muo-|vo, co- tal mi-|
 C,2 F,2 E,3 D, | C,2 A,,2 B,,2 D,2- | D,2 C,2 A,,4 | E,4 z2 C,2- | C,2 G,4 C,2- | %61
w: re- ca ch'à lu-|i par non pro-||vo, poi|_ ch'io fu-|
 C,2 F,2 D,2 A,,2- | A,,B,, C,2 B,,2 ^C,2 | D,2 A,,2 E,4 | z2 D,2 A,,2 A,,2 | D,2 D,2 C,2 A,,2 | %66
w: * i ci- gno,|_ poi ch'io fu- i|ci- * gno,|che mie pe-|ne, che mie pe-|
 C,4 C,2 B,,2 | C,2 C,2 F,2 D,2 | E,2 A,,2 D,4 | A,,2 D,2 C,2 A,,2 | C,6 B,,2 | C,4 F,2 D,2 | %72
w: ne, che mie|pe- ne can- *||to, che mie pe-|ne, che|mie pe- ne|
 E,2 A,,2 D,4 | A,,3 B,, C,D, E,2 | F,4 E,4 | A,,2 D,4 C,2 | D,4 A,,4- | A,,8 |] %78
w: can- * *||to, pe-|ne mie can-|* to.|_|

